symbols/web/account_balance_wallet/materialsymbolssharp/account_balance_wallet_wght300gradN25_48px.svg

<svg xmlns="http://www.w3.org/2000/svg" height="48" width="48"><path d="M32.4 27.15q1.25 0 2.2-.95.95-.95.95-2.2 0-1.3-.95-2.225t-2.2-.925q-1.25 0-2.2.925-.95.925-.95 2.225 0 1.25.95 2.2.95.95 2.2.95ZM9.35 34.6v4.05-29.3 4.05Zm-2.2 6.25V7.15h33.7v9.5h-2.2v-7.3H9.35v29.3h29.3v-7.3h2.2v9.5Zm16.8-25.25h19v16.8h-19Z"/></svg>

<svg xmlns="http://www.w3.org/2000/svg" height="48" width="48"><path d="M32.4 27.15Q33.65 27.15 34.6 26.2Q35.55 25.25 35.55 24Q35.55 22.7 34.6 21.775Q33.65 20.85 32.4 20.85Q31.15 20.85 30.2 21.775Q29.25 22.7 29.25 24Q29.25 25.25 30.2 26.2Q31.15 27.15 32.4 27.15ZM9.35 34.6V38.65V9.35V13.4ZM7.15 40.85V7.15H40.85V16.65H38.65V9.35H9.35V38.65H38.65V31.35H40.85V40.85ZM23.95 15.6H42.95V32.4H23.95Z"/></svg>
